logos/mapzen-icon.svg

<?xml version="1.0" encoding="UTF-8"?>
<svg width="256px" height="256px" viewBox="0 0 256 256" version="1.1" xmlns="http://www.w3.org/2000/svg" xmlns:xlink="http://www.w3.org/1999/xlink" preserveAspectRatio="xMidYMid">
    <g>
        <path d="M174.575388,103.525784 L254.941342,127.244315 C256.352886,127.663341 256.352886,128.33707 254.941342,128.754453 L254.941342,128.754453 L160.068862,156.756911 C158.657319,157.172651 157.173473,158.654854 156.75609,160.06804 L156.75609,160.06804 L128.753631,254.942164 C128.546583,255.647114 128.272162,256.000411 127.999384,256.000411 C127.726606,256.000411 127.453828,255.647114 127.245136,254.942164 L127.245136,254.942164 L105.710472,181.979007 L152.247038,152.752334 L154.28137,151.475537 L174.575388,103.525784 Z M38.6038234,146.161298 L47.2406946,148.709963 L45.4561356,209.181207 L57.1806553,205.19142 L58.7450201,152.106541 L67.3769616,154.655207 L65.9769208,202.199079 L101.760122,190.022668 L104.224983,198.378545 L65.7008564,211.486674 L65.472446,219.326573 L106.694773,206.739352 L109.15799,215.0903 L56.4132621,231.195698 L56.904591,214.482301 L36.385449,221.464429 L38.6038234,146.161298 Z M217.396587,146.161298 L219.613319,221.464429 L198.883842,214.409998 L199.378457,231.195698 L146.824345,215.149456 L149.289205,206.801795 L190.319273,219.326573 L190.087576,211.414371 L151.772142,198.378545 L154.240289,190.022668 L189.814798,202.125133 L188.414758,154.716007 L197.049986,152.167341 L198.611064,205.120761 L210.544275,209.181207 L208.763003,148.709963 L217.396587,146.161298 Z M182.666703,64.8554093 L148.194807,146.296043 L73.3024862,193.327225 L107.776025,111.886591 L182.666703,64.8554093 Z M127.999384,0 C128.272162,0 128.546583,0.35165343 128.753631,1.05824677 L128.753631,1.05824677 L150.828922,75.8470439 L101.689463,106.707097 L82.217065,152.707967 L42.84667,141.088615 L38.7895096,139.890692 L1.05742515,128.754453 C-0.352475051,128.33707 -0.352475051,127.663341 1.05742515,127.244315 L1.05742515,127.244315 L95.933192,99.2418564 C97.3430922,98.8261166 98.8269382,97.3455571 99.242678,95.9323704 L99.242678,95.9323704 L127.245136,1.05824677 C127.453828,0.35165343 127.726606,0 127.999384,0 Z M138.498046,117.115381 C132.94718,111.562872 123.947153,111.562872 118.394644,117.115381 C112.842135,122.664604 112.842135,131.666275 118.394644,137.218784 C123.947153,142.769649 132.94718,142.769649 138.498046,137.218784 C144.050555,131.666275 144.050555,122.664604 138.498046,117.115381 Z M56.4132621,23.1384671 L109.609881,39.3802545 L107.145021,47.7295586 L65.472446,35.0059487 L65.8290292,47.185646 L103.878259,58.8066416 L101.411755,67.1559458 L66.1001638,56.3697162 L67.4246155,101.330415 L58.7926741,103.880724 L57.3137578,53.6863048 L45.4495626,50.0629599 L47.1371704,107.320026 L38.505229,109.868692 L36.3903787,38.193835 L57.0426232,44.5005913 L56.4132621,23.1384671 Z M199.378457,23.1384671 L198.74581,44.566321 L219.608389,38.193835 L217.495182,109.868692 L208.861597,107.320026 L210.550848,50.0629599 L198.476318,53.7503912 L197.000688,103.819924 L188.368747,101.269615 L189.689912,56.4338026 L154.587012,67.1559458 L152.125438,58.8066416 L189.959404,47.2497324 L190.319273,35.0059487 L148.837314,47.6704019 L146.372454,39.3227411 L199.378457,23.1384671 Z" fill="#54485B"></path>
    </g>
</svg>

<svg width="256" height="256" xmlns="http://www.w3.org/2000/svg" preserveAspectRatio="xMidYMid">
	<path d="m174.575 103.526 80.366 23.718c1.412.42 1.412 1.093 0 1.51l-94.872 28.003c-1.412.416-2.896 1.898-3.313 3.311l-28.002 94.874c-.207.705-.482 1.058-.755 1.058-.272 0-.545-.353-.754-1.058L105.71 181.98l46.537-29.227 2.034-1.276 20.294-47.95ZM38.604 146.16l8.637 2.549-1.785 60.471 11.725-3.99 1.564-53.084 8.632 2.548-1.4 47.544 35.783-12.176 2.465 8.356-38.524 13.108-.229 7.84 41.223-12.588 2.463 8.351-52.745 16.106.492-16.714-20.52 6.982 2.219-75.303Zm178.793 0 2.216 75.303-20.73-7.054.495 16.786-52.554-16.047 2.465-8.347 41.03 12.525-.231-7.913-38.316-13.035 2.468-8.356 35.575 12.102-1.4-47.409 8.635-2.549 1.561 52.954 11.933 4.06-1.781-60.471 8.634-2.549Zm-34.73-81.306-34.472 81.441-74.893 47.031 34.474-81.44 74.89-47.032ZM127.999 0c.273 0 .548.352.755 1.058l22.075 74.789-49.14 30.86-19.472 46.001-39.37-11.62-4.057-1.197-37.733-11.137c-1.41-.417-1.41-1.09 0-1.51l94.876-28.002c1.41-.416 2.894-1.896 3.31-3.31l28.002-94.874C127.454.352 127.727 0 128 0Zm10.499 117.115c-5.55-5.552-14.55-5.552-20.103 0-5.553 5.55-5.553 14.551 0 20.104 5.552 5.55 14.552 5.55 20.103 0 5.553-5.553 5.553-14.554 0-20.104ZM56.413 23.138 109.61 39.38l-2.465 8.35-41.673-12.724.357 12.18 38.05 11.62-2.467 8.35L66.1 56.37l1.325 44.96-8.632 2.55-1.48-50.194-11.863-3.623 1.687 57.257-8.632 2.549-2.115-71.675L57.043 44.5l-.63-21.363Zm142.965 0-.632 21.428 20.862-6.372-2.113 71.675-8.633-2.549 1.689-57.257-12.075 3.687-1.475 50.07-8.632-2.55 1.32-44.836-35.102 10.722-2.462-8.35L189.96 47.25l.36-12.244-41.482 12.664-2.465-8.347 53.006-16.185Z" fill="#54485B"/>
</svg>
